X:1
T:Babes in the Wood
M:6/8
L:1/8
K:C
 E| CEG GGG| CEG G2G/2-F/2| EED C2 E| FDD D2E/2-F/2|G-G c G2 E| DEF G2G/2-F/2|\
 EEDC-C E| FDB,C-B, C/2B,/2| A,F,/2-G,/2A,/2-B,/2 G,2 G,/2 G,/2| CC/2-D/2E/2-F/2 D2 G,|\
 CEG GFE| EA,B, C2||
